src/pos-icons/video-vintage.svg

<svg height="24" viewBox="0 0 24 24" width="24" xmlns="http://www.w3.org/2000/svg"><path d="m18 14.5v-3.5a1 1 0 0 0 -1-1h-1c2.24-1.61 2.76-4.73 1.15-7-1.61-2.22-4.73-2.74-6.98-1.13-.67.48-1.21 1.13-1.57 1.86-2.35-1.45-5.43-.73-6.88 1.64-1.44 2.35-.72 5.43 1.64 6.88.21.12.42.25.64.33v8.42a1 1 0 0 0 1 1h12a1 1 0 0 0 1-1v-3.5l4 4v-11zm-5-10.5a2 2 0 0 1 2 2 2 2 0 0 1 -2 2 2 2 0 0 1 -2-2 2 2 0 0 1 2-2m-7 2a2 2 0 0 1 2 2 2 2 0 0 1 -2 2 2 2 0 0 1 -2-2 2 2 0 0 1 2-2z"/></svg>

<?xml version="1.0" encoding="UTF-8"?><!DOCTYPE svg PUBLIC "-//W3C//DTD SVG 1.1//EN" "http://www.w3.org/Graphics/SVG/1.1/DTD/svg11.dtd"><svg xmlns="http://www.w3.org/2000/svg" xmlns:xlink="http://www.w3.org/1999/xlink" version="1.1" id="mdi-video-vintage" width="24" height="24" viewBox="0 0 24 24"><path d="M18,14.5V11A1,1 0 0,0 17,10H16C18.24,8.39 18.76,5.27 17.15,3C15.54,0.78 12.42,0.26 10.17,1.87C9.5,2.35 8.96,3 8.6,3.73C6.25,2.28 3.17,3 1.72,5.37C0.28,7.72 1,10.8 3.36,12.25C3.57,12.37 3.78,12.5 4,12.58V21A1,1 0 0,0 5,22H17A1,1 0 0,0 18,21V17.5L22,21.5V10.5L18,14.5M13,4A2,2 0 0,1 15,6A2,2 0 0,1 13,8A2,2 0 0,1 11,6A2,2 0 0,1 13,4M6,6A2,2 0 0,1 8,8A2,2 0 0,1 6,10A2,2 0 0,1 4,8A2,2 0 0,1 6,6Z" /></svg>
